X: 11051
T: Fife and a the Lands about it
%R: air, march
B: James Oswald "The Caledonian Pocket Companion" v.1 b.1 p.5 #1
Z: 2020 John Chambers <jc:trillian.mit.edu>
M: C
L: 1/8
K: G
%%slurgraces 1
%%graceslurs 1
|: "_Slow"\
E2G>A G2g2 | {e}d3B d2G2 | g2G2 (GA)(Bc) | {Bc}d2Tc>B A4 |\
c2(ef) e2(ef/g/) | GABc {Bc}d2D2 | E2G2 e3d | (Bc)(de) d4 :|
|:\
(ga)(ba) g2d2 | e3d B2d2 | e2(gf) g2d2 | (cB)(AG) d3d |\
edef g3a | {ga}b2ag a2A2 | B2d2 e3d | g2(GA) G2 :|
